src/assets/icons/shapes,fancy,outline-pentagon.svg

<svg width="48" height="48" viewBox="0 0 48 48" fill="none" xmlns="http://www.w3.org/2000/svg">
<path d="M22.5305 5.92173C23.1257 5.48929 23.4711 5.24122 23.7437 5.08726C23.8667 5.01777 23.9369 4.99018 23.9718 4.97911C23.9879 4.97398 23.9959 4.97262 23.9975 4.97235C23.9989 4.97213 23.999 4.97214 24 4.97214H24.0001C24.001 4.97214 24.0011 4.97214 24.0025 4.97235C24.0041 4.97262 24.0121 4.97398 24.0282 4.97911C24.0631 4.99018 24.1333 5.01777 24.2563 5.08726C24.5289 5.24122 24.8743 5.48928 25.4695 5.92173L40.7394 17.016C41.3346 17.4484 41.6772 17.7002 41.9079 17.9119C42.012 18.0074 42.0599 18.0656 42.0812 18.0954C42.0911 18.1091 42.0948 18.1163 42.0956 18.1178C42.0962 18.119 42.0963 18.1191 42.0966 18.1201L43.5232 17.6565L42.0966 18.1201L42.0966 18.1201C42.0969 18.121 42.0969 18.1212 42.0971 18.1225C42.0974 18.1242 42.0986 18.1322 42.0987 18.1491C42.0989 18.1857 42.0944 18.2609 42.0663 18.3994C42.0041 18.7063 41.8749 19.1113 41.6475 19.811L35.815 37.7619C35.5876 38.4616 35.454 38.8653 35.324 39.1501C35.2653 39.2786 35.2248 39.3422 35.203 39.3716C35.193 39.3853 35.1874 39.391 35.1862 39.3922C35.1852 39.3932 35.1851 39.3933 35.1843 39.3939L35.1842 39.3939C35.1835 39.3944 35.1834 39.3945 35.1822 39.3951C35.1807 39.3959 35.1734 39.3995 35.1573 39.4048C35.1226 39.4164 35.0497 39.4353 34.9093 39.4514C34.5982 39.4871 34.173 39.4894 33.4373 39.4894H14.5627C13.827 39.4894 13.4018 39.4871 13.0907 39.4514C12.9503 39.4353 12.8774 39.4164 12.8427 39.4048C12.8266 39.3995 12.8193 39.3959 12.8178 39.3951C12.8166 39.3945 12.8165 39.3944 12.8157 39.3939C12.8153 39.3936 12.8151 39.3934 12.8148 39.3932C12.8146 39.393 12.8143 39.3927 12.8138 39.3922C12.8126 39.391 12.807 39.3853 12.7969 39.3716C12.7752 39.3422 12.7347 39.2786 12.676 39.1501C12.546 38.8653 12.4124 38.4616 12.185 37.7619L6.35245 19.8111C6.1251 19.1113 5.99589 18.7063 5.93371 18.3994C5.90565 18.2609 5.90108 18.1857 5.90133 18.1491C5.90144 18.1322 5.9026 18.1242 5.90286 18.1225C5.90307 18.1212 5.90313 18.121 5.90341 18.1201L5.90343 18.1201L5.90344 18.12C5.90373 18.1191 5.90378 18.119 5.9044 18.1178C5.90517 18.1163 5.90892 18.1091 5.91878 18.0954C5.9401 18.0656 5.98801 18.0074 6.09211 17.9119C6.32279 17.7002 6.66542 17.4484 7.26063 17.016L22.5305 5.92173Z" stroke="black" stroke-width="3"/>
</svg>

<svg xmlns="http://www.w3.org/2000/svg" width="48" height="48" fill="none" viewBox="0 0 48 48">
  <path stroke="#000" stroke-width="3" d="M25.47 5.922l15.27 11.094c.595.432.937.684 1.168.896.104.095.152.154.173.183l.015.023s0 0 0 0v.002h0l.001.002v.003l.002.024c0 .037-.005.112-.033.25-.062.307-.191.712-.419 1.412l-5.832 17.95c-.227.7-.361 1.104-.491 1.39a1.281 1.281 0 01-.138.241l-.002.002-.002.001a1.273 1.273 0 01-.273.056c-.31.036-.736.038-1.472.038H14.563c-.736 0-1.161-.002-1.472-.038a1.273 1.273 0 01-.273-.056l-.002-.001h-.001l-.001-.002a1.281 1.281 0 01-.138-.242c-.13-.285-.264-.688-.491-1.388l-5.833-17.95c-.227-.7-.356-1.106-.418-1.413a1.282 1.282 0 01-.031-.277v-.002h0l.001-.002.015-.023c.021-.03.069-.088.173-.183.23-.212.573-.464 1.169-.896L22.53 5.922c.595-.433.94-.68 1.213-.835a1.279 1.279 0 01.253-.115h.006a1.279 1.279 0 01.254.115c.272.154.617.402 1.213.835z"/>
</svg>
